src/assets/icons/marcha-nordica.svg

<?xml version="1.0" encoding="utf-8"?>
<!-- Generator: Adobe Illustrator 23.0.3, SVG Export Plug-In . SVG Version: 6.00 Build 0)  -->
<svg version="1.1" id="Capa_1" xmlns="http://www.w3.org/2000/svg" xmlns:xlink="http://www.w3.org/1999/xlink" x="0px" y="0px"
	 viewBox="0 -2 10 22" style="enable-background:new 0 0 10.8 22;" xml:space="preserve">
<style type="text/css">
	.st0{fill:#8F4B62;}
	.st1{fill-rule:evenodd;clip-rule:evenodd;fill:#8F4B62;}
</style>
<g>
	<g>
		<path class="st0" d="M3.5,12.8c-1.1,2.7-1.6,4.2-1.6,4.5C3.1,17.4,2.7,18,2.5,18H0.8c-0.1,0-0.2-0.1-0.2-0.2
			c0-0.6,1.1-6.8,1.3-6.6C2.3,11.5,3.1,12.2,3.5,12.8z"/>
		<path class="st0" d="M5.2,4.7C6.4,6.1,7.5,7,8.3,7.3c0.2,0,0.5,0.9,0.8,2.8c0,0.1,0.6,2.6,1.7,7.5l-0.5,0.1
			c-0.1-0.2-2.1-8.7-2.4-9.6C5.3,7.2,5.5,7,5.2,4.7C5.1,4.7,5.2,4.7,5.2,4.7z"/>
		<path class="st0" d="M3,4.4c1.6,0,2,0.2,2,2.1c0.2,2.2,0.6,3.9,1,5.1"/>
		<path class="st0" d="M6,11.6c0,0,0,0.1,0,0.1c0.7,1.1,0.8,4.2,0.8,5.7c1.4,0.1,0.9,0.7,0.8,0.7H5.8c-0.1,0-0.4-1.2-0.8-3.6
			c-0.4-1.3-1.1-2.4-2-3.2c-0.6-0.4-0.9-0.8-0.9-1.2C2.3,8.7,2.4,7.6,2.4,7c-0.5,0.4-0.9,1.4-1.2,3.1c0,1.1-1,0.4-1,0.3
			c0.3-3.3,1.3-5.3,2.9-6"/>
		<circle class="st1" cx="4" cy="2.1" r="1.7"/>
	</g>
</g>
<rect x="1.9" y="10.3" transform="matrix(0.962 0.2729 -0.2729 0.962 3.2214 -0.3349)" class="st0" width="1.9" height="2.3"/>
<rect x="2.3" y="13.7" class="st0" width="0.2" height="0.2"/>
<rect x="0.6" y="10.1" transform="matrix(0.9993 -3.757863e-02 3.757863e-02 0.9993 -0.5265 4.281438e-02)" class="st0" width="0.5" height="7.9"/>
</svg>

<?xml version="1.0" encoding="UTF-8" standalone="no"?>
<!-- Created with Inkscape (http://www.inkscape.org/) -->

<svg
   xmlns:dc="http://purl.org/dc/elements/1.1/"
   xmlns:cc="http://creativecommons.org/ns#"
   xmlns:rdf="http://www.w3.org/1999/02/22-rdf-syntax-ns#"
   xmlns:svg="http://www.w3.org/2000/svg"
   xmlns="http://www.w3.org/2000/svg"
   xmlns:sodipodi="http://sodipodi.sourceforge.net/DTD/sodipodi-0.dtd"
   xmlns:inkscape="http://www.inkscape.org/namespaces/inkscape"
   width="80.675758mm"
   height="80.675758mm"
   viewBox="0 0 80.675758 80.675758"
   version="1.1"
   id="svg8"
   inkscape:version="0.92.1 r15371"
   sodipodi:docname="marchanordica.svg">
  <defs
     id="defs2" />
  <sodipodi:namedview
     id="base"
     pagecolor="#ffffff"
     bordercolor="#666666"
     borderopacity="1.0"
     inkscape:pageopacity="0.0"
     inkscape:pageshadow="2"
     inkscape:zoom="0.35"
     inkscape:cx="-188.97045"
     inkscape:cy="127.07679"
     inkscape:document-units="mm"
     inkscape:current-layer="layer1"
     showgrid="false"
     fit-margin-top="0"
     fit-margin-left="0"
     fit-margin-right="0"
     fit-margin-bottom="0"
     inkscape:window-width="1366"
     inkscape:window-height="705"
     inkscape:window-x="-8"
     inkscape:window-y="-8"
     inkscape:window-maximized="1" />
  <metadata
     id="metadata5">
    <rdf:RDF>
      <cc:Work
         rdf:about="">
        <dc:format>image/svg+xml</dc:format>
        <dc:type
           rdf:resource="http://purl.org/dc/dcmitype/StillImage" />
        <dc:title></dc:title>
      </cc:Work>
    </rdf:RDF>
  </metadata>
  <g
     inkscape:label="Layer 1"
     inkscape:groupmode="layer"
     id="layer1"
     transform="translate(-29.965693,-117.56688)">
    <rect
       style="opacity:1;vector-effect:none;fill:none;fill-opacity:1;fill-rule:evenodd;stroke:none;stroke-width:0.1;stroke-linecap:butt;stroke-linejoin:miter;stroke-miterlimit:4;stroke-dasharray:none;stroke-dashoffset:0;stroke-opacity:1"
       id="rect5477-8-96"
       width="80.675758"
       height="80.675758"
       x="32.717098"
       y="117.83928"
       rx="0"
       ry="0"
       inkscape:export-filename="C:\Users\Pablo\Desktop\CARTOMETRICS\9 PROYECTOS\ANTIGUOS\10 Webgis MalagaActiva\logosUlt\marchanordica.png"
       inkscape:export-xdpi="11.019427"
       inkscape:export-ydpi="11.019427" />
    <g
       id="g5281"
       transform="matrix(4.3734456,0,0,4.3734456,53.251049,118.47799)"
       style="fill:#8e4b62;fill-opacity:0.77254902;stroke-width:0.06049768"
       inkscape:export-filename="C:\Users\Pablo\Desktop\CARTOMETRICS\9 PROYECTOS\ANTIGUOS\10 Webgis MalagaActiva\logosUlt\marchanordica.png"
       inkscape:export-xdpi="11.019427"
       inkscape:export-ydpi="11.019427">
      <g
         id="g5255"
         style="fill:#8e4b62;fill-opacity:0.77254902;stroke-width:0.06049768">
        <g
           id="g5253"
           style="fill:#8e4b62;fill-opacity:0.77254902;stroke-width:0.06049768">
          <path
             id="path5243"
             d="M 3.5,12.8 C 2.4,15.5 1.9,17 1.9,17.3 3.1,17.4 2.7,18 2.5,18 H 0.8 c -0.1,0 -0.2,-0.1 -0.2,-0.2 0,-0.6 1.1,-6.8 1.3,-6.6 0.4,0.3 1.2,1 1.6,1.6 z"
             class="st0"
             inkscape:connector-curvature="0"
             style="fill:#8e4b62;fill-opacity:0.77254902;stroke-width:0.06049768" />
          <path
             id="path5245"
             d="m 5.2,4.7 c 1.2,1.4 2.3,2.3 3.1,2.6 0.2,0 0.5,0.9 0.8,2.8 0,0.1 0.6,2.6 1.7,7.5 l -0.5,0.1 C 10.2,17.5 8.2,9 7.9,8.1 5.3,7.2 5.5,7 5.2,4.7 c -0.1,0 0,0 0,0 z"
             class="st0"
             inkscape:connector-curvature="0"
             style="fill:#8e4b62;fill-opacity:0.77254902;stroke-width:0.06049768" />
          <path
             id="path5247"
             d="m 3,4.4 c 1.6,0 2,0.2 2,2.1 0.2,2.2 0.6,3.9 1,5.1"
             class="st0"
             inkscape:connector-curvature="0"
             style="fill:#8e4b62;fill-opacity:0.77254902;stroke-width:0.06049768" />
          <path
             id="path5249"
             d="m 6,11.6 c 0,0 0,0.1 0,0.1 0.7,1.1 0.8,4.2 0.8,5.7 1.4,0.1 0.9,0.7 0.8,0.7 H 5.8 C 5.7,18.1 5.4,16.9 5,14.5 4.6,13.2 3.9,12.1 3,11.3 2.4,10.9 2.1,10.5 2.1,10.1 2.3,8.7 2.4,7.6 2.4,7 1.9,7.4 1.5,8.4 1.2,10.1 c 0,1.1 -1,0.4 -1,0.3 0.3,-3.3 1.3,-5.3 2.9,-6"
             class="st0"
             inkscape:connector-curvature="0"
             style="fill:#8e4b62;fill-opacity:0.77254902;stroke-width:0.06049768" />
          <circle
             id="circle5251"
             r="1.7"
             cy="2.0999999"
             cx="4"
             class="st1"
             style="clip-rule:evenodd;fill:#8e4b62;fill-opacity:0.77254902;fill-rule:evenodd;stroke-width:0.06049768" />
        </g>
      </g>
      <rect
         id="rect5257"
         height="2.3"
         width="1.9"
         class="st0"
         transform="matrix(0.962,0.2729,-0.2729,0.962,3.2214,-0.3349)"
         y="10.3"
         x="1.9"
         style="fill:#8e4b62;fill-opacity:0.77254902;stroke-width:0.06049768" />
      <rect
         id="rect5259"
         height="0.2"
         width="0.2"
         class="st0"
         y="13.7"
         x="2.3"
         style="fill:#8e4b62;fill-opacity:0.77254902;stroke-width:0.06049768" />
      <rect
         id="rect5261"
         height="7.9000001"
         width="0.5"
         class="st0"
         transform="matrix(0.9993,-0.03757863,0.03757863,0.9993,-0.5265,0.04281438)"
         y="10.1"
         x="0.60000002"
         style="fill:#8e4b62;fill-opacity:0.77254902;stroke-width:0.06049768" />
    </g>
  </g>
</svg>
